X:1
T:Title
%%score 1 2 3
L:1/8
Q:1/4=280
M:2/1
K:C
V:1 treble nm="MusicXML Part"
V:2 treble nm="MusicXML Part"
V:3 bass nm="MusicXML Part"
V:1
 G16 | G4 E4 z2 F2 z2 G2 | A6 _B2 A2 G4 ^F2 | G4 z2 G2 G4 E4 | z2 E2 E4 C4 z2 C2 | %5
w: O|||||
 C4 A,4 z2 A,2 A,4 | G,2 C4 E4 G4 F2 | E16 | C4 D4 E2 F2 G2 A2 | G2 ^F4 E2 G8 | z8 A2 G4 F2- | %11
w: |* * Pa- du- *|a|si- dus prae- * * *|cla- * * rum|hoc- ce nis-|
 F2 E4 D4 C4 B,2 | A,16 | C2 B,2 C2 D2 C2 D2 E2 D2 | E4 F2 G2 _B2 A4 G2 | G2 ^F4 E2 G8- | G8 z8 | %17
w: * sa ful- gi- *|do|vir- tu- tum re- gu- la mo- rum|ser- to re- ful- gens flo-|ri- * * do||
 z16 | G2 F2 E2 D2 F2 E2 D2 C2 | B,8 A,2 B,2 C2 B,2 | C16 | G4 F4 E4 D4 | C2 B,4 A,2 B,8- | %23
w: |te * * * lau- * * *|dat ju- ris san- cti-|o|phi- lo- so- phi-|ae ve- ri- tas|
 B,8 D4 E4 | F2 D4 F4 D4 E2 | ^F16 | G8 A2 G2 F2 E2 | E2 D4 C2 E8- | E8 z8 | z8 G2 E2 F2 G2 | %30
w: * et ar-|ti- sta- rum con- ci-|o|po- e- ma- tum sub-|li- mi- * tas||tu * * *|
 (3A2 G2 F2 (3E2 F2 D2 (3C2 D2 E2 (3D2 E2 ^C2 | D2 E2 F2 G2 F2 E4 D2 | E4 z4 G2 G2 G4 | z8 A4 D4 | %34
w: An- * * * * * * * * * * *|the- * * * no- * *|ris ge- ne- re|re- gis|
 z8 A6 G2- | G2 F4 E4 D4 ^C2 | D4 z4 E2 ^F2 G2 F2 | G4 z4 A4 A4 | _B16 | A8 _B2 A2 G2 F2 | %40
w: sump- si-|* sti ex- or- di-|um quo pro- les tu-|a mu- ner-|is|ge- nus * ha- bet|
 F2 E4 D2 C8- | C8 z8 | E4 E4 z8 | G4 G4 (3A2 G2 F2 (3E2 F2 D2 | ^C16 | z2 D2 B,2 =C2 D4 E4 | %46
w: e- gre- gi- um||fru- gum|o- pum fe- * cun- * dit- *|as|tel- lu- ris or- te|
 z2 F2 D2 E2 F4 G4 | z2 A2 F2 G2 A4 ^G4 | A8 z8 | D2 G4 D2 D2 G4 F2 | E16 | %51
w: spa- ci- o ti- bi|ser- vit j- ocun- di-|tas|fer- ti- li- tas o- ci-|o|
 (3A2 _B2 A2 (3G2 A2 F2 (3E2 F2 G2 (3F2 E2 D2 | C2 D2 E2 F2 E2 D4 ^C2 | D8 z8 | z16 | %55
w: Te- * * * * * * * * * * *|* ple- na mon- tes flu- mi-|na||
 A8 _B2 A2 G2 F2 | E4 D4 C8 | D4 D4 E8- | E8 D2 E2 ^F2 G2 | ^F4 z4 G8 | A2 G2 F2 E2 D4 C4 | %61
w: te ca- stra ju- ra|flo- ri- da|de- co- rant|* tem- pli cul- mi-|na e-|des et pon- tes bal- ne-|
 B,8 z2 C2 A,2 B,2 | C4 D4 z2 E2 C2 D2 | E4 G4 z2 A2 F2 G2 | _B2 A4 G2 G2 ^F4 E2 | G16 | %66
w: a tu- ae lau-|dis * pre- co- ni-|a * per or- *|bem * fa- ma me- mo-|rat|
 G2 F2 E2 D2 C4 D4 | E4 z4 D2 E4 F2 | G2 F4 E2 E2 D4 ^C2 | D4 z4 G2 F2 E2 F2 | D4 z4 D2 E4 F2 | %71
w: que * * * Jo- han-|nes Ci- co- ni-|a * * * * *|* can- to- re fid-|o re- * *|
 G4 G4 F8- | F8 E4 F2 G2 | A4 E4 z2 A2 F2 G2 | A4 E4 z2 D2 E2 F2 | G4 ^F4 z2 G2 z2 D2 | %76
w: * so- nat.|* A- * *||||
 z2 A2 z2 E2 ^F8- | F8 G2 G2 z2 G2 | A2 A2 z2 A2 G2 E2 F2 G2 | z2 A2 z2 G2 F2 G2 F2 A2 | ^F16 | %81
w: |||||
 G16 |] %82
w: men.|
V:2
 C16 | E2 F2 G4 D2 z2 D2 z2 | E2 C4 E2 D4 ^C4 | D8 z2 G2 G4 | E4 z2 E2 E4 C4 | %5
w: O|||||
 z2 C2 C4 A,4 z2 A,2 | G,4 C4 E4 D4 | C16 | z8 E4 C2 D2 | E2 D2 E2 ^C2 D8- | D8 C4 D4 | %11
w: |* * Pa- du-|a|si- dus *|prae- * cla- * rum|* hoc- ce|
 E4 F4 G4 A2 G2 | ^F16 | G2 F2 E2 F2 G2 F2 E2 F2 | E4 D4 C2 D2 E4 | D4 ^C4 D8 | z8 C4 D4 | %17
w: nis- sa ful- gi- *|do|vir- tu- tum re- gu- la mo- rum|ser- to re- ful- gens|flo- ri- do|te *|
 E2 F2 G2 A2 G2 ^F4 E2 | G4 z4 A8 | G2 ^F2 G2 E2 F4 F4 | G8 z8 | C2 E4 D4 E4 F2 | A2 G2 F2 E2 D8- | %23
w: lau- * * * * * *|dat ju-|ris * * * san- cti-|o|phi- lo- so- phi- ae|ve- * ri- * tas|
 D8 D4 B,4 | D2 B,4 D4 B,4 C2 | A,16 | C4 B,2 A,2 G,4 z2 G,2 | A,4 A,4 B,8- | B,8 C2 D2 E2 F2 | %29
w: * et ar-|ti- sta- rum con- ci-|o|po- e- ma- tum sub-|li- mi- tas|* tu * * *|
 D4 z4 B,4 C4 | D2 E2 F2 G2 E4 G4 | (3A2 G2 F2 (3E2 F2 D2 (3E2 D2 C2 (3B,2 C2 A,2 | %32
w: * An- *|||
 B,4 C2 D2 E4 z4 | G2 G2 G4 z8 | A4 D4 (3F2 G2 F2 (3E2 F2 D2 | E2 F2 G2 A2 B2 A4 ^G2 | A8 E4 ^C4 | %37
w: the- no- * ris|ge- ne- re|re- gis sump- * * si- * *|sti * ex- * or- * di-|um quo pro-|
 D4 G2 F2 E4 D2 C2 | D16 | D4 A,4 _B,2 C2 D4 | E2 F2 E2 D2 E8- | E8 G4 G4 | z8 G4 G4 | %43
w: les tu- * a mu- ner-|is|ge- nus ha- * bet|e- gre- gi- * um|* fru- gum|o- pum|
 z4 C4 D2 E2 F2 E2 | ^G16 | A4 z2 G2 A2 F2 G4 | A4 z2 G2 E2 D2 C4 | D4 z2 C2 D2 B,2 ^C2 C2 | D16 | %49
w: fe- cun- * dit- *|as|* tel- lu- ris or-|te spa- ci- o ti-|bi ser- vit j- ocun- di-|tas|
 G2 D4 G2 G2 D4 E2 | C16 | z16 | z16 | (3A2 _B2 A2 (3G2 A2 F2 (3E2 F2 G2 (3F2 E2 D2 | %54
w: fer- ti- li- tas o- ci-|o|||Te- * * * * * * * * * * *|
 C2 D2 E2 F2 E2 D4 ^C2 | D4 z2 D2 A,2 B,2 C2 D2 | E4 F4 E8 | G2 F2 E2 D2 C8 | G,8 B,4 B,4 | %59
w: * ple- na mon- tes flu- mi-|na te ca- stra ju- ra|flo- ri- da|de- * * * co-|rant tem- pli|
 A,2 B,2 C2 B,2 C4 z4 | G,4 A,4 B,2 C2 D2 E2 | D4 E4 F4 z2 A2 | F2 G2 A4 G4 z2 F2 | %63
w: cul- * mi- * na|e- * des et pon- tes|bal- ne- a tu-|ae * lau- dis pre-|
 E2 D2 C4 D4 z2 D2 | _B,2 C2 D4 C2 =B,4 A,2 | C16 | C2 D2 E2 F2 G4 F4 | E16 | %68
w: co- * ni- a per|or- bem fa- ma me- mo-|rat|que * * * Jo- han-|nes|
 D2 E2 F2 G2 A2 G4 ^F2 | G8 z8 | G2 F2 E2 F2 D4 z4 | E2 D2 E2 C2 D8- | D8 F2 G2 A4 | %73
w: Ci- * * * co- * ni-|a|can- to- re fid- o|re- * so- * nat.|* A- * *|
 E4 z2 A2 F2 G2 A4 | E4 z2 A2 A2 G2 A2 F2 | E2 D2 E2 ^C2 D2 z2 G2 z2 | D2 z2 E2 z2 D8 | %77
w: ||||
 A,4 B,4 z2 C2 C4 | z2 D2 D2 A,2 B,4 C4 | D2 z2 E2 z2 D2 A,2 B,2 C2 | A,8 B,8 | C16 |] %82
w: ||||men.|
V:3
 C,16 | C8 _B,8 | A,4 C4 _B,4 A,4 | G,16 | C,16- | C,16 | C,8 G,8 | A,16 | C4 B,4 A,8 | %9
 B,4 A,4 G,8- | G,8 z8 | z16 | D,16 | z16 | A,16 | B,4 A,4 G,8- | G,8 C4 B,4 | A,8 G,4 A,4 | %18
 G,8 D,8 | G,8 D,8 | C,16 | z16 | z8 G,8- | G,8 D,4 G,4 | D,2 G,4 D,4 G,4 E,2 | D,16 | C,16 | %27
 F,8 E,8- | E,8 A,4 C4 | D2 C2 B,2 A,2 G,8 | D,8 E,8 | F,4 A,4 G,4 F,4 | E,16 | G,4 E,4 D,8- | %34
 D,8 D4 C2 _B,2 | A,4 G,4 F,4 E,4 | D,8 A,8 | G,8 C8 | G,16 | D,16 | A,4 _B,4 A,8- | A,8 G,8 | %42
 A,8 G,8 | E,8 D,8 | E,16 | D,4 E,4 z2 D,2 G,4 | F,4 G,4 z2 A,2 E,4 | D,4 E,4 z2 F,2 E,4 | D,16 | %49
 G,16 | A,16 | D,4 E,4 A,4 D,4 | A,4 G,4 F,4 E,4 | D,8 E,4 G,4 | A,4 D,4 F,4 E,4 | D,8 z8 | %56
 z8 A,8 | G,8 C,8- | C,8 G,8 | D,8 C,8- | C,8 G,8- | G,8 F,8- | F,8 E,8- | E,8 D,8- | D,8 E,4 D,4 | %65
 C,16 | z16 | C8 D2 C2 B,2 A,2 | G,4 C4 B,4 A,4 | G,16- | G,8 D2 C2 B,2 A,2 | G,8 D,8- | D,8 A,8- | %73
 A,16- | A,8 D4 C4 | B,4 A,4 G,4 _B,4 | F,4 A,4 D,8- | D,8 C,8 | F,8 E,8 | D,4 G,4 D,4 G,4 | D,16 | %81
 C,16 |] %82

